img/sidebar-logo.svg

<svg xmlns="http://www.w3.org/2000/svg" xmlns:xlink="http://www.w3.org/1999/xlink" stroke-width=".501" stroke-linejoin="bevel" fill-rule="evenodd" overflow="visible" width="85" height="25" viewBox="0 0 63.75 18.75" xmlns:v="https://vecta.io/nano"><defs><filter id="A"><feComponentTransfer><feFuncR type="gamma" amplitude="1.055" exponent=".416666666" offset="-.055"/><feFuncG type="gamma" amplitude="1.055" exponent=".416666666" offset="-.055"/><feFuncB type="gamma" amplitude="1.055" exponent=".416666666" offset="-.055"/></feComponentTransfer><feComponentTransfer><feFuncR type="linear" slope="-1" intercept="1"/><feFuncG type="linear" slope="-1" intercept="1"/><feFuncB type="linear" slope="-1" intercept="1"/><feFuncA type="linear" slope="1" intercept="0"/></feComponentTransfer><feComponentTransfer><feFuncR type="gamma" amplitude="1" exponent="2.4" offset="0"/><feFuncG type="gamma" amplitude="1" exponent="2.4" offset="0"/><feFuncB type="gamma" amplitude="1" exponent="2.4" offset="0"/></feComponentTransfer></filter><image id="B" width=".001" height=".001" xlink:href="data:image/jpeg;base64,/9j/4AAQSkZJRgABAQEAYABgAAD/4QA3RXhpZgAASUkqAAgAAAABADEBAgAVAAAAGgAAAAAAAABYYXJhIERlc2lnbmVyIFBybyBYOQD/2wBDAAgGBgcGBQgHBwcJCQgKDBQNDAsLDBkSEw8UHRofHh0aHBwgJC4nICIsIxwcKDcpLDAxNDQ0Hyc5PTgyPC4zNDL/wAALCAAhAF0BAREA/8QAHwAAAQUBAQEBAQEAAAAAAAAAAAECAwQFBgcICQoL/8QAtRAAAgEDAwIEAwUFBAQAAAF9AQIDAAQRBRIhMUEGE1FhByJxFDKBkaEII0KxwRVS0fAkM2JyggkKFhcYGRolJicoKSo0NTY3ODk6Q0RFRkdISUpTVFVWV1hZWmNkZWZnaGlqc3R1dnd4eXqDhIWGh4iJipKTlJWWl5iZmqKjpKWmp6ipqrKztLW2t7i5usLDxMXGx8jJytLT1NXW19jZ2uHi4+Tl5ufo6erx8vP09fb3+Pn6/9oACAEBAAA/APf6KKKKKKKKKKKKKKKKKKKKKKKKKKKKKKKKKKKKKKKKKKKKKKKKKKKKKKKKKKK//9k="/><pattern id="C" patternUnits="userSpaceOnUse" width="1000" height="1000" patternTransform="translate(0.75 18) scale(1 -1)"><use xlink:href="#B" transform="scale(69750 24750)" filter="url(#A)"/></pattern><linearGradient id="D" gradientUnits="userSpaceOnUse" x1="33.52" y1=".53" x2="33.52" y2="18.65"><stop offset="0" stop-color="#202020"/><stop offset="1" stop-color="#fff"/></linearGradient><linearGradient id="E" gradientUnits="userSpaceOnUse" x1=".783" y1="8.993" x2="17.39" y2="8.993"><stop offset="0" stop-color="#fff"/><stop offset="1"/></linearGradient><linearGradient id="F" gradientUnits="userSpaceOnUse" x1="62.967" y1="8.992" x2="46.36" y2="8.992"><stop offset="0" stop-color="#fff"/><stop offset="1"/></linearGradient></defs><g transform="matrix(1 0 0 -1 0 18.75)" fill="none" stroke="#000"><g stroke="none"><mask id="G"><path fill="url(#C)" d="M-6.375-1.875h76.5v22.5h-76.5z"/></mask><path d="M.75 18H70.5V-6.75H.75V18z" fill="#000" mask="url(#G)"/><path d="M.001 18.751V0H63.75v18.751H.001z" fill="#202020"/></g><mask id="H"><path fill="#d3d3d3" stroke="none" d="M-6.375-1.875h76.5v22.5h-76.5z"/></mask><g fill-rule="nonzero" stroke="none" mask="url(#H)" fill="url(#D)"><path d="M18.714 17.713v-.455c-.604-.108-1.059-.295-1.37-.566-.444-.401-.838-1.017-1.18-1.845L10.217.657h-.462L3.371 15.032c-.327.738-.557 1.19-.693 1.353a2.16 2.16 0 0 1-.771.596c-.306.144-.718.238-1.237.277v.455h6.961v-.455c-.789-.073-1.299-.205-1.534-.393s-.351-.43-.351-.726c0-.41.191-1.05.576-1.92l4.336-9.773 4.021 9.651c.394.952.591 1.611.591 1.98 0 .238-.122.466-.364.683s-.653.37-1.232.462l-.213.036v.455h5.253z"/><path d="M31.495 18.093l.44-5.262h-.44c-.444 1.313-1.017 2.3-1.721 2.964-1.013.958-2.316 1.44-3.91 1.44-2.167 0-3.819-.841-4.949-2.522-.947-1.418-1.42-3.107-1.42-5.066 0-1.592.313-3.041.943-4.353s1.451-2.273 2.47-2.884 2.062-.916 3.134-.916c.629 0 1.236.079 1.823.235a7.21 7.21 0 0 1 1.694.688v4.82c.002.834-.063 1.383-.193 1.641a1.31 1.31 0 0 1-.603.591c-.272.135-.753.203-1.441.203v.466h6.598v-.466h-.314c-.651 0-1.101-.214-1.343-.64-.171-.303-.255-.904-.255-1.795V2.133c-.961-.508-1.912-.879-2.851-1.119S27.178.657 26.029.657c-3.292 0-5.791 1.035-7.5 3.1-1.283 1.548-1.925 3.336-1.925 5.362 0 1.466.361 2.871 1.08 4.217.854 1.599 2.029 2.828 3.518 3.687 1.25.714 2.725 1.07 4.424 1.07.62 0 1.185-.046 1.692-.146s1.225-.316 2.154-.653c.471-.173.786-.257.943-.257s.296.071.409.216.182.424.207.84h.464z"/><path d="M40.046 10.287l6.285-6.113c1.031-1.007 1.91-1.695 2.639-2.059s1.457-.571 2.187-.621V1.04h-8.106v.454c.486 0 .835.081 1.049.239s.321.339.321.535-.041.374-.122.531-.34.446-.783.872l-5.881 5.692V3.99c0-.844.054-1.401.164-1.671.084-.207.26-.382.527-.53.359-.197.742-.295 1.144-.295h.576V1.04h-7.262v.454h.603c.705 0 1.215.202 1.534.602.2.265.301.895.301 1.894v10.772c0 .844-.056 1.405-.164 1.684-.083.198-.253.37-.515.517a2.41 2.41 0 0 1-1.156.295h-.603v.455h7.262v-.455h-.576c-.395 0-.775-.094-1.144-.283a1.06 1.06 0 0 1-.54-.59c-.1-.263-.151-.803-.151-1.623V9.658l1.722 1.562 4.51 4.464c.226.327.341.614.341.861 0 .187-.087.355-.265.498s-.472.215-.892.215h-.391v.455h6.259v-.455a3.75 3.75 0 0 1-1.005-.148c-.302-.09-.67-.263-1.105-.524s-.974-.672-1.609-1.245l-2.549-2.522-2.605-2.532z"/><path d="M61.95 18.093v-5.766h-.464c-.152 1.107-.422 1.987-.811 2.644a4.17 4.17 0 0 1-1.666 1.562c-.72.385-1.465.577-2.236.577-.872 0-1.59-.26-2.162-.781s-.854-1.113-.854-1.777c0-.506.181-.97.541-1.387.517-.616 1.754-1.437 3.707-2.462 1.591-.835 2.679-1.476 3.261-1.924s1.031-.973 1.344-1.58a4.09 4.09 0 0 0 .471-1.905c0-1.262-.5-2.352-1.499-3.265S59.291.657 57.715.657c-.493 0-.959.038-1.394.112-.258.041-.797.19-1.614.45s-1.336.386-1.553.386c-.21 0-.374-.062-.497-.184s-.209-.377-.269-.764h-.466v5.716h.466c.217-1.194.512-2.091.88-2.684s.931-1.086 1.688-1.48 1.59-.592 2.494-.592c1.049 0 1.876.271 2.483.812s.912 1.18.912 1.919c0 .408-.116.825-.346 1.242s-.589.806-1.073 1.167c-.328.245-1.22.769-2.678 1.566l-3.109 1.913c-.616.477-1.083 1.001-1.403 1.574s-.477 1.207-.477 1.895c0 1.197.469 2.228 1.408 3.092s2.131 1.296 3.581 1.296c.906 0 1.864-.216 2.877-.651.47-.205.801-.306.994-.306.217 0 .396.063.534.19s.248.382.333.767h.464z"/></g><mask id="I"><path fill="url(#E)" stroke="none" d="M-6.375-1.875h76.5v22.5h-76.5z"/></mask><path d="M.001 18.751V0H63.75v18.751H.001z" fill="#202020" stroke="none" mask="url(#I)"/><mask id="J"><path fill="url(#F)" stroke="none" d="M-6.375-1.875h76.5v22.5h-76.5z"/></mask><path d="M63.749 18.75V-.001H0V18.75h63.749z" fill="#202020" stroke="none" mask="url(#J)"/></g></svg>

<?xml version="1.0" standalone="no"?>
<!DOCTYPE svg PUBLIC "-//W3C//DTD SVG 1.1//EN" "http://www.w3.org/Graphics/SVG/1.1/DTD/svg11.dtd">
<!--Generator: Xara Designer (www.xara.com), SVG filter version: 4.0.0.1-->
<svg stroke-width="0.501" stroke-linejoin="bevel" fill-rule="evenodd" xmlns:xlink="http://www.w3.org/1999/xlink" xmlns="http://www.w3.org/2000/svg" version="1.1" overflow="visible" width="63.75pt" height="18.75pt" viewBox="0 0 63.75 18.75">
 <defs>
  <marker id="DefaultArrow2" markerUnits="strokeWidth" viewBox="0 0 1 1" markerWidth="1" markerHeight="1" overflow="visible" orient="auto">
   <!-- REF_ARROW_STRAIGHT (-2) -->
   <g transform="scale(0.0092592592)">
    <!-- 1/108 -->
    <path d="M -9 54 L -9 -54 L 117 0 z"/>
   </g>
  </marker>
  <marker id="DefaultArrow3" markerUnits="strokeWidth" viewBox="0 0 1 1" markerWidth="1" markerHeight="1" overflow="visible" orient="auto">
   <!-- REF_ARROW_ANGLED -->
   <g transform="scale(0.0092592592)">
    <path d="M -27 54 L -9 0 L -27 -54 L 135 0 z"/>
   </g>
  </marker>
  <marker id="DefaultArrow4" markerUnits="strokeWidth" viewBox="0 0 1 1" markerWidth="1" markerHeight="1" overflow="visible" orient="auto">
   <!-- REF_ARROW_ROUNDED -->
   <g transform="scale(0.0092592592)">
    <path d="M -9,0 L -9,-45 C -9,-51.708 2.808,-56.580 9,-54 L 117,-9 C 120.916,-7.369 126.000,-4.242 126,0 C 126,4.242 120.916,7.369 117,9 L 9,54 C 2.808,56.580 -9,51.708 -9,45 z"/>
   </g>
  </marker>
  <marker id="DefaultArrow5" markerUnits="strokeWidth" viewBox="0 0 1 1" markerWidth="1" markerHeight="1" overflow="visible" orient="auto">
   <!-- REF_ARROW_SPOT -->
   <g transform="scale(0.0092592592)">
    <path d="M -54, 0 C -54,29.807 -29.807,54 0,54 C 29.807,54 54,29.807 54,0 C 54,-29.807 29.807,-54 0,-54 C -29.807,-54 -54,-29.807 -54,0 z"/>
   </g>
  </marker>
  <marker id="DefaultArrow6" markerUnits="strokeWidth" viewBox="0 0 1 1" markerWidth="1" markerHeight="1" overflow="visible" orient="auto">
   <!-- REF_ARROW_DIAMOND -->
   <g transform="scale(0.0092592592)">
    <path d="M -63,0 L 0,63 L 63,0 L 0,-63 z"/>
   </g>
  </marker>
  <marker id="DefaultArrow7" markerUnits="strokeWidth" viewBox="0 0 1 1" markerWidth="1" markerHeight="1" overflow="visible" orient="auto">
   <!-- REF_ARROW_FEATHER -->
   <g transform="scale(0.0092592592)">
    <path d="M 18,-54 L 108,-54 L 63,0 L 108,54 L 18, 54 L -36,0 z"/>
   </g>
  </marker>
  <marker id="DefaultArrow8" markerUnits="strokeWidth" viewBox="0 0 1 1" markerWidth="1" markerHeight="1" overflow="visible" orient="auto">
   <!-- REF_ARROW_FEATHER2 -->
   <g transform="scale(0.0092592592)">
    <path d="M -36,0 L 18,-54 L 54,-54 L 18,-18 L 27,-18 L 63,-54 L 99,-54 L 63,-18 L 72,-18 L 108,-54 L 144,-54 L 90,0 L 144,54 L 108,54 L 72,18 L 63,18 L 99,54 L 63,54 L 27,18 L 18,18 L 54,54 L 18,54 z"/>
   </g>
  </marker>
  <marker id="DefaultArrow9" markerUnits="strokeWidth" viewBox="0 0 1 1" markerWidth="1" markerHeight="1" overflow="visible" orient="auto">
   <!-- REF_ARROW_HOLLOWDIAMOND -->
   <g transform="scale(0.0092592592)">
    <path d="M 0,45 L -45,0 L 0, -45 L 45, 0 z M 0, 63 L-63, 0 L 0, -63 L 63, 0 z"/>
   </g>
  </marker>
  <filter id="StainedFilter">
   <feBlend mode="multiply" in2="BackgroundImage" in="SourceGraphic" result="blend"/>
   <feComposite in="blend" in2="SourceAlpha" operator="in" result="comp"/>
  </filter>
  <filter id="BleachFilter">
   <feBlend mode="screen" in2="BackgroundImage" in="SourceGraphic" result="blend"/>
   <feComposite in="blend" in2="SourceAlpha" operator="in" result="comp"/>
  </filter>
  <filter id="InvertTransparencyBitmapFilter">
   <feComponentTransfer>
    <feFuncR type="gamma" amplitude="1.055" exponent=".416666666" offset="-0.055"/>
    <feFuncG type="gamma" amplitude="1.055" exponent=".416666666" offset="-0.055"/>
    <feFuncB type="gamma" amplitude="1.055" exponent=".416666666" offset="-0.055"/>
   </feComponentTransfer>
   <feComponentTransfer>
    <feFuncR type="linear" slope="-1" intercept="1"/>
    <feFuncG type="linear" slope="-1" intercept="1"/>
    <feFuncB type="linear" slope="-1" intercept="1"/>
    <feFuncA type="linear" slope="1" intercept="0"/>
   </feComponentTransfer>
   <feComponentTransfer>
    <feFuncR type="gamma" amplitude="1" exponent="2.4" offset="0"/>
    <feFuncG type="gamma" amplitude="1" exponent="2.4" offset="0"/>
    <feFuncB type="gamma" amplitude="1" exponent="2.4" offset="0"/>
   </feComponentTransfer>
  </filter>
  <image id="Bitmap" width="0.001" height="0.001" xlink:href="data:image/jpeg;base64,/9j/4AAQSkZJRgABAQEAYABgAAD/4QA3RXhpZgAASUkqAAgAAAABADEBAgAVAAAAGgAAAAAAAABYYXJhIERlc2lnbmVyIFBybyBYOQD/2wBDAAgGBgcGBQgHBwcJCQgKDBQNDAsLDBkSEw8UHRofHh0aHBwgJC4nICIsIxwcKDcpLDAxNDQ0Hyc5PTgyPC4zNDL/wAALCAAhAF0BAREA/8QAHwAAAQUBAQEBAQEAAAAAAAAAAAECAwQFBgcICQoL/8QAtRAAAgEDAwIEAwUFBAQAAAF9AQIDAAQRBRIhMUEGE1FhByJxFDKBkaEII0KxwRVS0fAkM2JyggkKFhcYGRolJicoKSo0NTY3ODk6Q0RFRkdISUpTVFVWV1hZWmNkZWZnaGlqc3R1dnd4eXqDhIWGh4iJipKTlJWWl5iZmqKjpKWmp6ipqrKztLW2t7i5usLDxMXGx8jJytLT1NXW19jZ2uHi4+Tl5ufo6erx8vP09fb3+Pn6/9oACAEBAAA/APf6KKKKKKKKKKKKKKKKKKKKKKKKKKKKKKKKKKKKKKKKKKKKKKKKKKKKKKKKKKK//9k=">
   <title>Bitmap1</title>
  </image>
  <pattern id="BitmapFill" patternUnits="userSpaceOnUse" width="1000" height="1000" patternTransform="translate(0.75 18) scale(1 -1)">
   <use xlink:href="#Bitmap" transform="scale(69750 24750)" filter="url(#InvertTransparencyBitmapFilter)"/>
  </pattern>
  <linearGradient id="LinearGradient" gradientUnits="userSpaceOnUse" x1="0" y1="0" x2="0" y2="18.12" gradientTransform="translate(33.52 0.53)">
   <stop offset="0" stop-color="#202020"/>
   <stop offset="1" stop-color="#ffffff"/>
  </linearGradient>
  <linearGradient id="LinearGradient_1" gradientUnits="userSpaceOnUse" x1="0" y1="0" x2="16.607" y2="0" gradientTransform="translate(0.783 8.993)">
   <stop offset="0" stop-color="#ffffff"/>
   <stop offset="1" stop-color="#000000"/>
  </linearGradient>
  <linearGradient id="LinearGradient_2" gradientUnits="userSpaceOnUse" x1="0" y1="0" x2="16.607" y2="0" gradientTransform="translate(62.967 8.992) rotate(180)">
   <stop offset="0" stop-color="#ffffff"/>
   <stop offset="1" stop-color="#000000"/>
  </linearGradient>
 </defs>
 <g id="Document" fill="none" stroke="black" font-family="Times New Roman" font-size="16" transform="scale(1 -1)">
  <g id="Spread" transform="translate(0 -18.75)">
   <g id="Page background">
    <g id="Group" stroke="none">
     <mask id="TranspMask">
      <rect x="-10%" y="-10%" width="120%" height="120%" fill="url(#BitmapFill)" stroke="none"/>
     </mask>
     <path d="M 0.75,18 L 70.5,18 L 70.5,-6.75 L 0.75,-6.75 L 0.75,18 Z" fill="#000000" marker-start="none" marker-end="none" mask="url(#TranspMask)"/>
     <path d="M 0,18.749 L 0,0 L 63.749,0 L 63.749,18.749 L 0,18.749 Z" stroke-linejoin="bevel" stroke-width="0" fill="none" marker-start="none" marker-end="none" stroke-miterlimit="79.8403193612775"/>
    </g>
   </g>
   <g id="SVG Document">
    <path d="M 0.001,18.751 L 0.001,0 L 63.75,0 L 63.75,18.751 L 0.001,18.751 Z" fill="#202020" stroke="none" stroke-linecap="round" stroke-linejoin="round" stroke-width="32.483" marker-start="none" marker-end="none" stroke-miterlimit="79.8403193612775"/>
    <mask id="TranspMask_1">
     <rect x="-10%" y="-10%" width="120%" height="120%" fill="#d3d3d3" stroke="none"/>
    </mask>
    <g id="Group_1" stroke-width="32.483" fill-rule="nonzero" stroke-linejoin="round" stroke-linecap="round" stroke="none" stroke-miterlimit="79.8403193612775" mask="url(#TranspMask_1)" fill="url(#LinearGradient)">
     <path d="M 18.714,17.713 L 18.714,17.258 C 18.11,17.15 17.655,16.963 17.344,16.692 C 16.9,16.291 16.506,15.675 16.164,14.847 L 10.217,0.657 L 9.755,0.657 L 3.371,15.032 C 3.044,15.77 2.814,16.222 2.678,16.385 C 2.469,16.64 2.214,16.838 1.907,16.981 C 1.601,17.125 1.189,17.219 0.67,17.258 L 0.67,17.713 L 7.631,17.713 L 7.631,17.258 C 6.842,17.185 6.332,17.053 6.097,16.865 C 5.864,16.676 5.746,16.435 5.746,16.139 C 5.746,15.729 5.937,15.089 6.322,14.219 L 10.658,4.446 L 14.679,14.097 C 15.073,15.049 15.27,15.708 15.27,16.077 C 15.27,16.315 15.148,16.543 14.906,16.76 C 14.663,16.977 14.253,17.13 13.674,17.222 C 13.634,17.228 13.562,17.24 13.461,17.258 L 13.461,17.713 L 18.714,17.713 Z" marker-start="none" marker-end="none"/>
     <path d="M 31.495,18.093 L 31.935,12.831 L 31.495,12.831 C 31.051,14.144 30.478,15.131 29.774,15.795 C 28.761,16.753 27.458,17.235 25.864,17.235 C 23.697,17.235 22.045,16.394 20.915,14.713 C 19.968,13.295 19.495,11.606 19.495,9.647 C 19.495,8.055 19.808,6.606 20.438,5.294 C 21.065,3.981 21.889,3.021 22.908,2.41 C 23.925,1.799 24.97,1.494 26.042,1.494 C 26.671,1.494 27.278,1.573 27.865,1.729 C 28.451,1.884 29.016,2.112 29.559,2.417 L 29.559,7.237 C 29.561,8.071 29.496,8.62 29.366,8.878 C 29.237,9.135 29.035,9.333 28.763,9.469 C 28.491,9.604 28.01,9.672 27.322,9.672 L 27.322,10.138 L 33.92,10.138 L 33.92,9.672 L 33.606,9.672 C 32.955,9.672 32.505,9.458 32.263,9.032 C 32.092,8.729 32.008,8.128 32.008,7.237 L 32.008,2.133 C 31.047,1.625 30.096,1.254 29.157,1.014 C 28.219,0.777 27.178,0.657 26.029,0.657 C 22.737,0.657 20.238,1.692 18.529,3.757 C 17.246,5.305 16.604,7.093 16.604,9.119 C 16.604,10.585 16.965,11.99 17.684,13.336 C 18.538,14.935 19.713,16.164 21.202,17.023 C 22.452,17.737 23.927,18.093 25.626,18.093 C 26.246,18.093 26.811,18.047 27.318,17.947 C 27.825,17.846 28.543,17.631 29.472,17.294 C 29.943,17.121 30.258,17.037 30.415,17.037 C 30.574,17.037 30.711,17.108 30.824,17.253 C 30.937,17.396 31.006,17.677 31.031,18.093 L 31.495,18.093 Z" marker-start="none" marker-end="none"/>
     <path d="M 40.046,10.287 L 46.331,4.174 C 47.362,3.167 48.241,2.479 48.97,2.115 C 49.697,1.75 50.427,1.544 51.157,1.494 L 51.157,1.04 L 43.051,1.04 L 43.051,1.494 C 43.537,1.494 43.886,1.575 44.1,1.733 C 44.314,1.894 44.421,2.072 44.421,2.268 C 44.421,2.467 44.38,2.642 44.299,2.799 C 44.221,2.954 43.959,3.245 43.516,3.671 L 37.635,9.363 L 37.635,3.99 C 37.635,3.146 37.689,2.589 37.799,2.319 C 37.883,2.112 38.059,1.937 38.326,1.789 C 38.685,1.592 39.068,1.494 39.47,1.494 L 40.046,1.494 L 40.046,1.04 L 32.784,1.04 L 32.784,1.494 L 33.387,1.494 C 34.092,1.494 34.602,1.696 34.921,2.096 C 35.121,2.361 35.222,2.991 35.222,3.99 L 35.222,14.762 C 35.222,15.606 35.166,16.167 35.058,16.446 C 34.975,16.644 34.805,16.816 34.543,16.963 C 34.173,17.161 33.79,17.258 33.387,17.258 L 32.784,17.258 L 32.784,17.713 L 40.046,17.713 L 40.046,17.258 L 39.47,17.258 C 39.075,17.258 38.695,17.164 38.326,16.975 C 38.067,16.845 37.884,16.648 37.786,16.385 C 37.686,16.122 37.635,15.582 37.635,14.762 L 37.635,9.658 C 37.804,9.814 38.377,10.335 39.357,11.22 C 41.844,13.45 43.349,14.938 43.867,15.684 C 44.093,16.011 44.208,16.298 44.208,16.545 C 44.208,16.732 44.121,16.9 43.943,17.043 C 43.768,17.186 43.471,17.258 43.051,17.258 L 42.66,17.258 L 42.66,17.713 L 48.919,17.713 L 48.919,17.258 C 48.549,17.251 48.216,17.2 47.914,17.11 C 47.612,17.02 47.244,16.847 46.809,16.586 C 46.372,16.329 45.835,15.914 45.2,15.341 C 45.016,15.174 44.167,14.335 42.651,12.819 L 40.046,10.287 Z" marker-start="none" marker-end="none"/>
     <path d="M 61.95,18.093 L 61.95,12.327 L 61.486,12.327 C 61.334,13.434 61.064,14.314 60.675,14.971 C 60.285,15.627 59.731,16.148 59.009,16.533 C 58.289,16.918 57.544,17.11 56.773,17.11 C 55.901,17.11 55.183,16.85 54.611,16.329 C 54.043,15.81 53.757,15.216 53.757,14.552 C 53.757,14.046 53.938,13.582 54.298,13.165 C 54.815,12.549 56.052,11.728 58.005,10.703 C 59.596,9.868 60.684,9.227 61.266,8.779 C 61.847,8.332 62.297,7.806 62.61,7.199 C 62.924,6.592 63.081,5.958 63.081,5.294 C 63.081,4.032 62.581,2.942 61.582,2.029 C 60.579,1.115 59.291,0.657 57.715,0.657 C 57.222,0.657 56.756,0.695 56.321,0.769 C 56.063,0.81 55.524,0.959 54.707,1.219 C 53.889,1.475 53.371,1.605 53.154,1.605 C 52.944,1.605 52.78,1.543 52.657,1.421 C 52.536,1.297 52.448,1.044 52.388,0.657 L 51.922,0.657 L 51.922,6.373 L 52.388,6.373 C 52.605,5.179 52.9,4.282 53.268,3.689 C 53.634,3.095 54.199,2.603 54.956,2.209 C 55.715,1.814 56.546,1.617 57.45,1.617 C 58.499,1.617 59.326,1.888 59.933,2.429 C 60.541,2.97 60.845,3.609 60.845,4.348 C 60.845,4.756 60.729,5.173 60.499,5.59 C 60.268,6.006 59.91,6.396 59.426,6.757 C 59.098,7.002 58.206,7.526 56.748,8.323 C 55.291,9.123 54.255,9.763 53.639,10.236 C 53.023,10.713 52.556,11.237 52.236,11.81 C 51.92,12.385 51.759,13.017 51.759,13.705 C 51.759,14.902 52.228,15.933 53.167,16.797 C 54.106,17.661 55.298,18.093 56.748,18.093 C 57.654,18.093 58.612,17.877 59.625,17.442 C 60.095,17.237 60.426,17.136 60.619,17.136 C 60.836,17.136 61.015,17.199 61.153,17.326 C 61.291,17.452 61.401,17.708 61.486,18.093 L 61.95,18.093 Z" marker-start="none" marker-end="none"/>
    </g>
    <mask id="TranspMask_2">
     <rect x="-10%" y="-10%" width="120%" height="120%" fill="url(#LinearGradient_1)" stroke="none"/>
    </mask>
    <path d="M 0.001,18.751 L 0.001,0 L 63.75,0 L 63.75,18.751 L 0.001,18.751 Z" fill="#202020" stroke="none" stroke-linecap="round" stroke-linejoin="round" stroke-width="32.483" marker-start="none" marker-end="none" stroke-miterlimit="79.8403193612775" mask="url(#TranspMask_2)"/>
    <mask id="TranspMask_3">
     <rect x="-10%" y="-10%" width="120%" height="120%" fill="url(#LinearGradient_2)" stroke="none"/>
    </mask>
    <path d="M 63.749,18.75 L 63.749,-0.001 L 0,-0.001 L 0,18.75 L 63.749,18.75 Z" fill="#202020" stroke="none" stroke-linecap="round" stroke-linejoin="round" stroke-width="32.483" marker-start="none" marker-end="none" stroke-miterlimit="79.8403193612775" mask="url(#TranspMask_3)"/>
   </g>
  </g>
 </g>
</svg>
